img/fb.svg

<svg width="60" height="60" viewBox="0 0 60 60" fill="none" xmlns="http://www.w3.org/2000/svg">
<path d="M0 30C0 13.4315 13.4315 0 30 0C46.5685 0 60 13.4315 60 30C60 46.5685 46.5685 60 30 60C13.4315 60 0 46.5685 0 30Z" fill="#3B5998"/>
<path d="M33.1269 47.6393V31.3178H37.6324L38.2295 25.6933H33.1269L33.1346 22.8781C33.1346 21.4112 33.274 20.6251 35.381 20.6251H38.1976V15H33.6915C28.2789 15 26.3738 17.7285 26.3738 22.317V25.6939H23V31.3184H26.3738V47.6393H33.1269Z" fill="white"/>
</svg>

<svg width="60" height="60" fill="none" xmlns="http://www.w3.org/2000/svg"><path d="M0 30C0 13.431 13.431 0 30 0c16.569 0 30 13.431 30 30 0 16.569-13.431 30-30 30C13.431 60 0 46.569 0 30z" fill="#3B5998"/><path d="M33.127 47.64V31.317h4.505l.598-5.625h-5.103l.008-2.815c0-1.467.139-2.253 2.246-2.253h2.817V15H33.69c-5.412 0-7.317 2.729-7.317 7.317v3.377H23v5.624h3.374V47.64h6.753z" fill="#fff"/></svg>
